X: 12884
T: Festen
R: waltz
M: 3/4
K: Bminor
Bc cd Bc|de f2 dd|fb a2 f2|ee (f2 f)(B|
B)c cd Bc|de f2 dd|fb a2 f2|ee f3(f|
f)^g a2 ec|d/c/d/e/ f2 d2|Bc df2e|cd B3 (f
f)^g a2 ec|d/c/d/e/ f2 d2|Bc df2e|cd B4||

